X:1
T:Hospodin je můj pastýř
M:4/4
L:1/4
Q:1/4=72
K:D
"D" D F A d | "A" c A E2 | "G" G B A G | "D" F D2 z |
"D" D F A d | "A" c A E2 | "Bm" B A G F | "G" G "A" A "D" D2 |]
